public/avatar/body/68.svg

<svg xmlns:xlink="http://www.w3.org/1999/xlink" height="82" width="84.85" xmlns="http://www.w3.org/2000/svg"><g transform="translate(37.4 42.25)"><use height="38" transform="translate(-11.95 -17.45)" width="32.05" xlink:href="#a"/><use height="21.6" transform="translate(-12.25 -17.95)" width="32.65" xlink:href="#b"/><use height="21.35" transform="translate(-14.45 .5)" width="36.25" xlink:href="#c"/></g><defs><path d="M27.35 7.4q2.15 4.15 3.55 8.75 1.45 4.7 1.15 9.5-.35 4.95-4.2 8.1-3.8 3.2-8.75 4.05l-2.6.2q-3.6 0-7.05-1.15-4.65-1.6-7.1-5.5Q-.2 27.4.05 23q.2-4.4 2-9.3Q3.85 8.75 7 5.05 10.1 1.3 14.7.1l1.8-.1q1.9.05 3.7.8 4.75 2.05 7.15 6.6" fill="#fff" fill-rule="evenodd" transform="translate(-.05)" id="d"/><path d="M31.9 20.6q-.3-2.25-1-4.45-1.4-4.6-3.55-8.75-2.4-4.55-7.15-6.6-2.65-1.1-5.5-.7Q10.1 1.3 7 5.05q-3.15 3.7-4.95 8.65Q.7 17.3.25 20.6" fill="none" stroke="#000" stroke-linecap="round" stroke-linejoin="round" transform="translate(.25 .5)" id="e"/><use height="38" width="32.05" xlink:href="#d" id="a"/><use height="21.6" width="32.65" xlink:href="#e" id="b"/><g id="c"><path d="m20.75 4.2.35 1.25.2 2.5-.2 3.5-.65 3.75-.65 2.55q-.3-1.05-1.15-1.9-.6-.6-1.45-.75l.25-.45.45-1.35 1.35-3.6q.8-2.2.8-4.6l-.15-.55.85-.35-.85.35-.45.15L19 5l-.6-.1-3.45 1-.65.4h-.15l-.8-.15L11.1 6l-2.05.8q.1-.7-.15-1.2l-.15-.2q-.45-.3-.7.15-.3.85.4 1.25l.45.15-.6.6L7.2 5.7l3.2-2q4-2.75 8.9-2.05 1.5.3 1.95 1.8l-.5.75m-29.5 11.3-.7.5-1.85 1.45-.95.75-.15-.45-.4-1.85q-.2-1.6-.55-3.1-.9-3.95.15-7.8l-.65-.95q-.2-.8 0-1.45.5-1.75 2.45-1.6l-.25 1.55 1.25.1 1.8-.05 3.75.6q3.15.8 5.8 3l-.3.5-.3.8.05.95q-1.9-1.3-4.35-1.05l-1.8.2-1.55.05-1.8.1-1.2-.95-.75-.9-.75-.3h-.1l-1.3-.6 1.3.6q-.25 3.95 1.8 7.4l.3.55.3 1.4q.3.55.75.55m22.9-11.85q2.6.05 5 .9l.3.15-.3-.15q-2.4-.85-5-.9m-26.35-1.4.55.3-.55-.3m7.1 3.6-6.7-.25 6.7.25" fill="#333" fill-rule="evenodd" transform="translate(14.45 -.5)"/><path d="m17.45 14.65-.25.45-.35.55.6-1M19 5l-.15.1-4.55 1.2.65-.4 3.45-1 .6.1M8.9 6.95l-.55 3.1-1.05.8q1.2-1 1.1-2.7l-.1-.6.6-.6m-4.4 4.8h.45l-.2.5-.1 2.1-.15-2.6M-5.75 7.6l-1.15.2-.4-.15 1.55-.05m-3.35.15-.6.35.15.55-.75-1.85 1.2.95" fill="#345636" fill-rule="evenodd" transform="translate(14.45 -.5)"/><path d="m17.9 13.3-.45 1.35-.6 1-.3.35.25.45-.5.05q-1-.7-1.8-1.8-.65-1-1-2.05l.1-.55q1.45.8 2.25 2.4l1.5-2.05.55.85M-8 16.35l-.1-.3-.2-.15.55-.75 1.85-1 3.95-2.1.7.4q-.05.8-.9 1.25L-5 15.5q-1.25 1-3 .85M14.3 6.3l4.55-1.2-.75 1.25-.3.65-3.3 1.9-3.95-.1q-.4 2.25-2.65 3.4l-1.35-.1q-.45-.3-.05-.75l.8-.5 1.05-.8.55-3.1.15-.15L11.1 6l2.25.15.8.15h.15M.4 8.45l.15.5q-1.05.1-2.1.5l-2.9.3-4.85.45-.05-.35-.2-1.2-.15-.55.6-.35 1.8-.1.4.15 1.15-.2 1.8-.2Q-1.5 7.15.4 8.45m14.95 6.6 1.2.95-1.2-.95" fill="#0e110d" fill-rule="evenodd" transform="translate(14.45 -.5)"/><path d="M16.8 16.45q1.2.45 1.1.7l-.7.4-1.4.1h-.55q-3.65.3-7.35-.8-.65-.15-.75 0l-.15-.1-.8-.6-.7-.6.5-2q.3-1.15-.5-1.85l1-.35q-.4.45.05.75l1.35.1q2.25-1.15 2.65-3.4l3.95.1L17.8 7l-.1.3q-.6 2.55-.35 5.15l-1.5 2.05q-.8-1.6-2.25-2.4l-.1.55q.35 1.05 1 2.05.8 1.1 1.8 1.8l.5-.05M-6.95 18l-1.45-.2.4-1.45q1.75.15 3-.85l2.85-1.8q.85-.45.9-1.25l-.7-.4-3.95 2.1-1.85 1-.55.75-.45-.4q-.45 0-.75-.55l-.3-1.4.45-1.75q.1-.8.05-1.6l4.85-.45 2.9-.3q1.05-.4 2.1-.5.6 1.5 1.9 2.25l2.05.55.15 2.6v.3l.15.5-.5.35-2.7 1.65-1.85.35-4.35.55-2.35-.05" fill="#232d22" fill-rule="evenodd" transform="translate(14.45 -.5)"/><path d="m8.9 6.95-.45-.15q-.7-.4-.4-1.25.25-.45.7-.15l.15.2q.25.5.15 1.2l-.15.15" fill="#666" fill-rule="evenodd" transform="translate(14.45 -.5)"/><path d="m4 6.1.1-.05q.85-.2 1.4.3l.55 1v.9l-.6 1.05-.55.2q-.85 0-1.4-.35-.6-.4-.6-.9l-.05-.35.05-.35.45-.85-.05.25.2.6.5.25.5-.25.2-.6-.2-.6Q4.3 6.1 4 6.1" fill="#930" fill-rule="evenodd" transform="translate(14.45 -.5)"/><path d="m.95 6.2 1.9.85.7-.7-.2.35-.45.85-.4-.35q-.95-.5-1.85-.5l.3-.5m4.5 3.1.6-1.05L5.9 9l-.45.3" fill="#fc0" fill-rule="evenodd" transform="translate(14.45 -.5)"/><path d="m2.9 7.55-.05.35.05.35q-1.15.4-2.15-.4l-.4-.35.3-.8q.9 0 1.85.5l.4.35m2 1.95.55-.2.45-.3.15-.75v-.9l.45-.55q1.4.85 1.45 2.5l-.1.9-3.1-.1q-.35-.4.15-.6" fill="#c69e00" fill-rule="evenodd" transform="translate(14.45 -.5)"/><path d="m5.5 6.35 1.7-.65 1.1 1.85.1.6q.1 1.7-1.1 2.7l-.8.5-1 .35-.55.05H4.5l-2.05-.55q-1.3-.75-1.9-2.25l-.15-.5-.05-.95.4.35q1 .8 2.15.4 0 .5.6.9.55.35 1.4.35-.5.2-.15.6l3.1.1.1-.9Q7.9 7.65 6.5 6.8l-.45.55-.55-1" fill="#7e6201" fill-rule="evenodd" transform="translate(14.45 -.5)"/><path d="M3.55 6.35 4 6.1q.3 0 .5.25l.2.6-.2.6-.5.25-.5-.25-.2-.6.05-.25.2-.35" fill="red" fill-rule="evenodd" transform="translate(14.45 -.5)"/><path d="M5.5 11.7q.8.7.5 1.85l-.5 2-.1-.05-.6-.35-.15-.5v-.3l.1-2.1.2-.5.55-.05" fill="#61735b" fill-rule="evenodd" transform="translate(14.45 -.5)"/><path d="M15.25 17.65v.6l-.25.4-.35.35-1.25.5-2.55.3-.25-.5-4.45.85-.3-.2q-.05-.7.5-.85l2.45-.65q-3.3-.9-6.7-.1l-5.35.85-3.55.1-.4-.3.35-.8 2.25-.15 4.35-.55 1.85-.35 1.9-.35 1.1-1.35.8.05.1.05.7.6.25.45.55.15.15.1q.1-.15.75 0 3.7 1.1 7.35.8m-7.9 1.85-1.5.45 1.5-.45" fill="#42442d" fill-rule="evenodd" transform="translate(14.45 -.5)"/><path d="M13.4 19.5q-3.25 1.25-6.75 1.85l-.9-.2-.2-1.1-2.25.3v.7l-.55.15-1.8-.35q-2.7-1.1-5.6-1.1-1.2 0-2.15-.45l3.55-.1 5.35-.85q3.4-.8 6.7.1l-2.45.65q-.55.15-.5.85l-.3.1.3-.1.3.2 4.45-.85.25.5 2.55-.3M-7.2 19l-.05-.45.3-.55 2.35.05-2.25.15-.35.8m13.4-2.85.8.6-.55-.15-.25-.45m-.8-.65-.8-.05-1.1 1.35-1.9.35 2.7-1.65.5-.35.6.35m-3.5 4.7 1.4.15-1.4-.15" fill="#515436" fill-rule="evenodd" transform="translate(14.45 -.5)"/><path d="M17.2 15.1q.85.15 1.45.75.85.85 1.15 1.9l.65-2.55.65-3.75.2-3.5-.2-2.5-.35-1.25-.85.35-.45.15L19 5l-.6-.1-3.45 1-.65.4h-.15l-.8-.15L11.1 6l-2.05.8-.15.15-.6.6L7.2 5.7l3.2-2q4-2.75 8.9-2.05 1.5.3 1.95 1.8l-.5.75m-.7.9q0 2.4-.8 4.6l-1.35 3.6-.45 1.35-.25.45-.35.55-.3.35.25.45q1.2.45 1.1.7l-.7.4-1.4.1h-.55q-3.65.3-7.35-.8-.65-.15-.75 0l-.15-.1-.8-.6-.7-.6-.1-.05-.6-.35-.5.35-2.7 1.65-1.85.35-4.35.55-2.35-.05-1.45-.2.4-1.45-.1-.3-.2-.15-.45-.4-.7.5-1.85 1.45-.95.75-.15-.45-.4-1.85q-.2-1.6-.55-3.1-.9-3.95.15-7.8l-.65-.95q-.2-.8 0-1.45.5-1.75 2.45-1.6l-.25 1.55 1.25.1 1.8-.05 3.75.6q3.15.8 5.8 3l1.9.85.7-.7L4 6.1l.1-.05q.85-.2 1.4.3l1.7-.65m8.05 12.55-.25.4-.35.35-1.25.5q-3.25 1.25-6.75 1.85l-.9-.2-.2-1.1-2.25.3v.7l-.55.15-1.8-.35q-2.7-1.1-5.6-1.1-1.2 0-2.15-.45l-.4-.3-.05-.45.3-.55m25.8-12.9L19 5m-.15.1-.75 1.25-.3.65-.1.3q-.6 2.55-.35 5.15l.55.85m1.55-8.6-.3-.15q-2.4-.85-5-.9m-7.65 7.7-1 .35-.55.05H4.5l-2.05-.55q-1.3-.75-1.9-2.25l-.15-.5q-1.9-1.3-4.35-1.05l-1.8.2-1.55.05-1.8.1-1.2-.95.75 1.85.2 1.2m16.65 1-.8.5M3.35 6.7l-.45.85m-.05.35.05.35q0 .5.6.9.55.35 1.4.35l.55-.2.6-1.05v-.9l-.55-1m-1.95 0-.2.35m-2.7 0-.3.8.05.95M.65 6.7l.3-.5m6.35 4.65q1.2-1 1.1-2.7l-.1-.6m-3.5 7.6-.15-.5v-.3l-.15-2.6m-1.2 8.6-1.4-.15m3.95-.25 1.5-.45m-1.8.55.3-.1M16.55 16l-1.2-.95M-9.3 10.2q.05.8-.05 1.6l-.45 1.75.3 1.4q.3.55.75.55m-2.9-12.95-.55-.3m.3 3.35h.1l6.7.25m-6.7-.25.75.3.75.9M-13.2 5l1.3.6q-.25 3.95 1.8 7.4l.3.55" fill="none" stroke="#000" stroke-linecap="round" stroke-linejoin="round" transform="translate(14.45 -.5)"/></g></defs></svg>

<?xml version="1.0" encoding="UTF-8" standalone="no"?>
<svg xmlns:xlink="http://www.w3.org/1999/xlink" height="82.0px" width="84.85px" xmlns="http://www.w3.org/2000/svg">
  <g transform="matrix(1.0, 0.0, 0.0, 1.0, 37.4, 42.25)">
    <use height="38.0" transform="matrix(1.0, 0.0, 0.0, 1.0, -11.95, -17.45)" width="32.05" xlink:href="#sprite0"/>
    <use height="21.6" transform="matrix(1.0, 0.0, 0.0, 1.0, -12.25, -17.95)" width="32.65" xlink:href="#sprite1"/>
    <use height="21.35" transform="matrix(1.0, 0.0, 0.0, 1.0, -14.45, 0.5)" width="36.25" xlink:href="#shape2"/>
  </g>
  <defs>
    <g id="sprite0" transform="matrix(1.0, 0.0, 0.0, 1.0, -0.05, 0.0)">
      <use height="38.0" transform="matrix(1.0, 0.0, 0.0, 1.0, 0.05, 0.0)" width="32.05" xlink:href="#shape0"/>
    </g>
    <g id="shape0" transform="matrix(1.0, 0.0, 0.0, 1.0, -0.05, 0.0)">
      <path d="M27.35 7.4 Q29.5 11.55 30.9 16.15 32.35 20.85 32.05 25.65 31.7 30.6 27.85 33.75 24.05 36.95 19.1 37.8 L16.5 38.0 Q12.9 38.0 9.45 36.85 4.8 35.25 2.35 31.35 -0.2 27.4 0.05 23.0 0.25 18.6 2.05 13.7 3.85 8.75 7.0 5.05 10.1 1.3 14.7 0.1 L16.5 0.0 Q18.4 0.05 20.2 0.8 24.95 2.85 27.35 7.4" fill="#ffffff" fill-rule="evenodd" stroke="none"/>
    </g>
    <g id="sprite1" transform="matrix(1.0, 0.0, 0.0, 1.0, 0.25, 0.5)">
      <use height="21.6" transform="matrix(1.0, 0.0, 0.0, 1.0, -0.25, -0.5)" width="32.65" xlink:href="#shape1"/>
    </g>
    <g id="shape1" transform="matrix(1.0, 0.0, 0.0, 1.0, 0.25, 0.5)">
      <path d="M31.9 20.6 Q31.6 18.35 30.9 16.15 29.5 11.55 27.35 7.4 24.95 2.85 20.2 0.8 17.55 -0.3 14.7 0.1 10.1 1.3 7.0 5.05 3.85 8.75 2.05 13.7 0.7 17.3 0.25 20.6" fill="none" stroke="#000000" stroke-linecap="round" stroke-linejoin="round" stroke-width="1.0"/>
    </g>
    <g id="shape2" transform="matrix(1.0, 0.0, 0.0, 1.0, 14.45, -0.5)">
      <path d="M20.75 4.2 L21.1 5.45 21.3 7.95 21.1 11.45 20.45 15.2 19.8 17.75 Q19.5 16.7 18.65 15.85 18.05 15.25 17.2 15.1 L17.45 14.65 17.9 13.3 19.25 9.7 Q20.05 7.5 20.05 5.1 L19.9 4.55 20.75 4.2 19.9 4.55 19.45 4.7 19.0 5.0 18.4 4.9 14.95 5.9 14.3 6.3 14.25 6.3 14.15 6.3 13.35 6.15 11.1 6.0 9.05 6.8 Q9.15 6.1 8.9 5.6 L8.75 5.4 Q8.3 5.1 8.05 5.55 7.75 6.4 8.45 6.8 L8.9 6.95 8.3 7.55 7.2 5.7 10.4 3.7 Q14.4 0.95 19.3 1.65 20.8 1.95 21.25 3.45 L20.75 4.2 M-8.75 15.5 L-9.45 16.0 -11.3 17.45 -12.25 18.2 -12.4 17.75 -12.8 15.9 Q-13.0 14.3 -13.35 12.8 -14.25 8.85 -13.2 5.0 L-13.85 4.05 Q-14.05 3.25 -13.85 2.6 -13.35 0.85 -11.4 1.0 L-11.65 2.55 -10.4 2.65 -8.6 2.6 -4.85 3.2 Q-1.7 4.0 0.95 6.2 L0.65 6.7 0.35 7.5 0.4 8.45 Q-1.5 7.15 -3.95 7.4 L-5.75 7.6 -7.3 7.65 -9.1 7.75 -10.3 6.8 -11.05 5.9 -11.8 5.6 -11.9 5.6 -13.2 5.0 -11.9 5.6 Q-12.15 9.55 -10.1 13.0 L-9.8 13.55 -9.5 14.95 Q-9.2 15.5 -8.75 15.5 M14.15 3.65 Q16.75 3.7 19.15 4.55 L19.45 4.7 19.15 4.55 Q16.75 3.7 14.15 3.65 M-12.2 2.25 L-11.65 2.55 -12.2 2.25 M-5.1 5.85 L-11.8 5.6 -5.1 5.85" fill="#333333" fill-rule="evenodd" stroke="none"/>
      <path d="M17.45 14.65 L17.2 15.1 16.85 15.65 17.45 14.65 M19.0 5.0 L18.85 5.1 14.3 6.3 14.95 5.9 18.4 4.9 19.0 5.0 M8.9 6.95 L8.35 10.05 7.3 10.85 Q8.5 9.85 8.4 8.15 L8.3 7.55 8.9 6.95 M4.5 11.75 L4.95 11.75 4.75 12.25 4.65 14.35 4.5 11.75 M-5.75 7.6 L-6.9 7.8 -7.3 7.65 -5.75 7.6 M-9.1 7.75 L-9.7 8.1 -9.55 8.65 -10.3 6.8 -9.1 7.75" fill="#345636" fill-rule="evenodd" stroke="none"/>
      <path d="M17.9 13.3 L17.45 14.65 16.85 15.65 16.55 16.0 16.8 16.45 16.3 16.5 Q15.3 15.8 14.5 14.7 13.85 13.7 13.5 12.65 L13.6 12.1 Q15.05 12.9 15.85 14.5 L17.35 12.45 17.9 13.3 M-8.0 16.35 L-8.1 16.05 -8.3 15.9 -7.75 15.15 -5.9 14.15 -1.95 12.05 -1.25 12.45 Q-1.3 13.25 -2.15 13.7 L-5.0 15.5 Q-6.25 16.5 -8.0 16.35 M14.3 6.3 L18.85 5.1 18.1 6.35 17.8 7.0 14.5 8.9 10.55 8.8 Q10.15 11.05 7.9 12.2 L6.55 12.1 Q6.1 11.8 6.5 11.35 L7.3 10.85 8.35 10.05 8.9 6.95 9.05 6.8 11.1 6.0 13.35 6.15 14.15 6.3 14.25 6.3 14.3 6.3 M0.4 8.45 L0.55 8.95 Q-0.5 9.05 -1.55 9.45 L-4.45 9.75 -9.3 10.2 -9.35 9.85 -9.55 8.65 -9.7 8.1 -9.1 7.75 -7.3 7.65 -6.9 7.8 -5.75 7.6 -3.95 7.4 Q-1.5 7.15 0.4 8.45 M15.35 15.05 L16.55 16.0 15.35 15.05" fill="#0e110d" fill-rule="evenodd" stroke="none"/>
      <path d="M16.8 16.45 Q18.0 16.9 17.9 17.15 L17.2 17.55 15.8 17.65 15.25 17.65 Q11.6 17.95 7.9 16.85 7.25 16.7 7.15 16.85 L7.0 16.75 6.2 16.15 5.5 15.55 6.0 13.55 Q6.3 12.4 5.5 11.7 L6.5 11.35 Q6.1 11.8 6.55 12.1 L7.9 12.2 Q10.15 11.05 10.55 8.8 L14.5 8.9 17.8 7.0 17.7 7.3 Q17.1 9.85 17.35 12.45 L15.85 14.5 Q15.05 12.9 13.6 12.1 L13.5 12.65 Q13.85 13.7 14.5 14.7 15.3 15.8 16.3 16.5 L16.8 16.45 M-6.95 18.0 L-8.4 17.8 -8.0 16.35 Q-6.25 16.5 -5.0 15.5 L-2.15 13.7 Q-1.3 13.25 -1.25 12.45 L-1.95 12.05 -5.9 14.15 -7.75 15.15 -8.3 15.9 -8.75 15.5 Q-9.2 15.5 -9.5 14.95 L-9.8 13.55 -9.35 11.8 Q-9.25 11.0 -9.3 10.2 L-4.45 9.75 -1.55 9.45 Q-0.5 9.05 0.55 8.95 1.15 10.45 2.45 11.2 L4.5 11.75 4.65 14.35 4.65 14.65 4.8 15.15 4.3 15.5 1.6 17.15 -0.25 17.5 -4.6 18.05 -6.95 18.0" fill="#232d22" fill-rule="evenodd" stroke="none"/>
      <path d="M8.9 6.95 L8.45 6.8 Q7.75 6.4 8.05 5.55 8.3 5.1 8.75 5.4 L8.9 5.6 Q9.15 6.1 9.05 6.8 L8.9 6.95" fill="#666666" fill-rule="evenodd" stroke="none"/>
      <path d="M4.0 6.1 L4.1 6.05 Q4.95 5.85 5.5 6.35 L6.05 7.35 6.05 8.25 5.45 9.3 4.9 9.5 Q4.05 9.5 3.5 9.15 2.9 8.75 2.9 8.25 L2.85 7.9 2.9 7.55 3.35 6.7 3.3 6.95 3.5 7.55 4.0 7.8 4.5 7.55 4.7 6.95 4.5 6.35 Q4.3 6.1 4.0 6.1" fill="#993300" fill-rule="evenodd" stroke="none"/>
      <path d="M0.95 6.2 L2.85 7.05 3.55 6.35 3.35 6.7 2.9 7.55 2.5 7.2 Q1.55 6.7 0.65 6.7 L0.95 6.2 M5.45 9.3 L6.05 8.25 5.9 9.0 5.45 9.3" fill="#ffcc00" fill-rule="evenodd" stroke="none"/>
      <path d="M2.9 7.55 L2.85 7.9 2.9 8.25 Q1.75 8.65 0.75 7.85 L0.35 7.5 0.65 6.7 Q1.55 6.7 2.5 7.2 L2.9 7.55 M4.9 9.5 L5.45 9.3 5.9 9.0 6.05 8.25 6.05 7.35 6.5 6.8 Q7.9 7.65 7.95 9.3 L7.85 10.2 4.75 10.1 Q4.4 9.7 4.9 9.5" fill="#c69e00" fill-rule="evenodd" stroke="none"/>
      <path d="M5.5 6.35 L7.2 5.7 8.3 7.55 8.4 8.15 Q8.5 9.85 7.3 10.85 L6.5 11.35 5.5 11.7 4.95 11.75 4.5 11.75 2.45 11.2 Q1.15 10.45 0.55 8.95 L0.4 8.45 0.35 7.5 0.75 7.85 Q1.75 8.65 2.9 8.25 2.9 8.75 3.5 9.15 4.05 9.5 4.9 9.5 4.4 9.7 4.75 10.1 L7.85 10.2 7.95 9.3 Q7.9 7.65 6.5 6.8 L6.05 7.35 5.5 6.35" fill="#7e6201" fill-rule="evenodd" stroke="none"/>
      <path d="M3.55 6.35 L4.0 6.1 Q4.3 6.1 4.5 6.35 L4.7 6.95 4.5 7.55 4.0 7.8 3.5 7.55 3.3 6.95 3.35 6.7 3.55 6.35" fill="#ff0000" fill-rule="evenodd" stroke="none"/>
      <path d="M5.5 11.7 Q6.3 12.4 6.0 13.55 L5.5 15.55 5.4 15.5 4.8 15.15 4.65 14.65 4.65 14.35 4.75 12.25 4.95 11.75 5.5 11.7" fill="#61735b" fill-rule="evenodd" stroke="none"/>
      <path d="M15.25 17.65 L15.25 18.25 15.0 18.65 14.65 19.0 13.4 19.5 10.85 19.8 10.6 19.3 6.15 20.15 5.85 19.95 Q5.8 19.25 6.35 19.1 L8.8 18.45 Q5.5 17.55 2.1 18.35 L-3.25 19.2 -6.8 19.3 -7.2 19.0 -6.85 18.2 -4.6 18.05 -0.25 17.5 1.6 17.15 3.5 16.8 4.6 15.45 5.4 15.5 5.5 15.55 6.2 16.15 6.45 16.6 7.0 16.75 7.15 16.85 Q7.25 16.7 7.9 16.85 11.6 17.95 15.25 17.65 M7.35 19.5 L5.85 19.95 7.35 19.5" fill="#42442d" fill-rule="evenodd" stroke="none"/>
      <path d="M13.4 19.5 Q10.15 20.75 6.65 21.35 L5.75 21.15 5.55 20.05 3.3 20.35 3.3 21.05 2.75 21.2 0.95 20.85 Q-1.75 19.75 -4.65 19.75 -5.85 19.75 -6.8 19.3 L-3.25 19.2 2.1 18.35 Q5.5 17.55 8.8 18.45 L6.35 19.1 Q5.8 19.25 5.85 19.95 L5.55 20.05 5.85 19.95 6.15 20.15 10.6 19.3 10.85 19.8 13.4 19.5 M-7.2 19.0 L-7.25 18.55 -6.95 18.0 -4.6 18.05 -6.85 18.2 -7.2 19.0 M6.2 16.15 L7.0 16.75 6.45 16.6 6.2 16.15 M5.4 15.5 L4.6 15.45 3.5 16.8 1.6 17.15 4.3 15.5 4.8 15.15 5.4 15.5 M1.9 20.2 L3.3 20.35 1.9 20.2" fill="#515436" fill-rule="evenodd" stroke="none"/>
      <path d="M17.2 15.1 Q18.05 15.25 18.65 15.85 19.5 16.7 19.8 17.75 L20.45 15.2 21.1 11.45 21.3 7.95 21.1 5.45 20.75 4.2 19.9 4.55 19.45 4.7 19.0 5.0 18.4 4.9 14.95 5.9 14.3 6.3 14.25 6.3 14.15 6.3 13.35 6.15 11.1 6.0 9.05 6.8 8.9 6.95 8.3 7.55 7.2 5.7 10.4 3.7 Q14.4 0.95 19.3 1.65 20.8 1.95 21.25 3.45 L20.75 4.2 M20.05 5.1 Q20.05 7.5 19.25 9.7 L17.9 13.3 17.45 14.65 17.2 15.1 16.85 15.65 16.55 16.0 16.8 16.45 Q18.0 16.9 17.9 17.15 L17.2 17.55 15.8 17.65 15.25 17.65 Q11.6 17.95 7.9 16.85 7.25 16.7 7.15 16.85 L7.0 16.75 6.2 16.15 5.5 15.55 5.4 15.5 4.8 15.15 4.3 15.5 1.6 17.15 -0.25 17.5 -4.6 18.05 -6.95 18.0 -8.4 17.8 -8.0 16.35 -8.1 16.05 -8.3 15.9 -8.75 15.5 -9.45 16.0 -11.3 17.45 -12.25 18.2 -12.4 17.75 -12.8 15.9 Q-13.0 14.3 -13.35 12.8 -14.25 8.85 -13.2 5.0 L-13.85 4.05 Q-14.05 3.25 -13.85 2.6 -13.35 0.85 -11.4 1.0 L-11.65 2.55 -10.4 2.65 -8.6 2.6 -4.85 3.2 Q-1.7 4.0 0.95 6.2 L2.85 7.05 3.55 6.35 4.0 6.1 4.1 6.05 Q4.95 5.85 5.5 6.35 L7.2 5.7 M15.25 18.25 L15.0 18.65 14.65 19.0 13.4 19.5 Q10.15 20.75 6.65 21.35 L5.75 21.15 5.55 20.05 3.3 20.35 3.3 21.05 2.75 21.2 0.95 20.85 Q-1.75 19.75 -4.65 19.75 -5.85 19.75 -6.8 19.3 L-7.2 19.0 -7.25 18.55 -6.95 18.0 M18.85 5.1 L19.0 5.0 M18.85 5.1 L18.1 6.35 17.8 7.0 17.7 7.3 Q17.1 9.85 17.35 12.45 L17.9 13.3 M19.45 4.7 L19.15 4.55 Q16.75 3.7 14.15 3.65 M6.5 11.35 L5.5 11.7 4.95 11.75 4.5 11.75 2.45 11.2 Q1.15 10.45 0.55 8.95 L0.4 8.45 Q-1.5 7.15 -3.95 7.4 L-5.75 7.6 -7.3 7.65 -9.1 7.75 -10.3 6.8 -9.55 8.65 -9.35 9.85 M7.3 10.85 L6.5 11.35 M3.35 6.7 L2.9 7.55 M2.85 7.9 L2.9 8.25 Q2.9 8.75 3.5 9.15 4.05 9.5 4.9 9.5 L5.45 9.3 6.05 8.25 6.05 7.35 5.5 6.35 M3.55 6.35 L3.35 6.7 M0.65 6.7 L0.35 7.5 0.4 8.45 M0.65 6.7 L0.95 6.2 M7.3 10.85 Q8.5 9.85 8.4 8.15 L8.3 7.55 M4.8 15.15 L4.65 14.65 4.65 14.35 4.5 11.75 M3.3 20.35 L1.9 20.2 M5.85 19.95 L7.35 19.5 M5.55 20.05 L5.85 19.95 M16.55 16.0 L15.35 15.05 M-9.3 10.2 Q-9.25 11.0 -9.35 11.8 L-9.8 13.55 -9.5 14.95 Q-9.2 15.5 -8.75 15.5 M-11.65 2.55 L-12.2 2.25 M-11.9 5.6 L-11.8 5.6 -5.1 5.85 M-11.8 5.6 L-11.05 5.9 -10.3 6.8 M-13.2 5.0 L-11.9 5.6 Q-12.15 9.55 -10.1 13.0 L-9.8 13.55" fill="none" stroke="#000000" stroke-linecap="round" stroke-linejoin="round" stroke-width="1.0"/>
    </g>
  </defs>
</svg>
